humanity-icon-theme/Humanity/mimes/64/text-x-preview.svg

<?xml version="1.0" encoding="UTF-8" standalone="no"?>
<!-- Created with Inkscape (http://www.inkscape.org/) -->
<svg
   xmlns:svg="http://www.w3.org/2000/svg"
   xmlns="http://www.w3.org/2000/svg"
   xmlns:xlink="http://www.w3.org/1999/xlink"
   version="1.0"
   width="64"
   height="64"
   id="svg3428">
  <defs
     id="defs3430">
    <linearGradient
       id="linearGradient5048">
      <stop
         id="stop5050"
         style="stop-color:#000000;stop-opacity:0"
         offset="0" />
      <stop
         id="stop5056"
         style="stop-color:#000000;stop-opacity:1"
         offset="0.5" />
      <stop
         id="stop5052"
         style="stop-color:#000000;stop-opacity:0"
         offset="1" />
    </linearGradient>
    <linearGradient
       x1="302.85715"
       y1="366.64789"
       x2="302.85715"
       y2="609.50507"
       id="linearGradient3246"
       xlink:href="#linearGradient5048"
       gradientUnits="userSpaceOnUse"
       gradientTransform="matrix(9.1538462e-2,0,0,2.0588233e-2,-1.084616,49.45137)" />
    <radialGradient
       cx="605.71429"
       cy="486.64789"
       r="117.14286"
       fx="605.71429"
       fy="486.64789"
       id="radialGradient3243"
       xlink:href="#linearGradient5060"
       gradientUnits="userSpaceOnUse"
       gradientTransform="matrix(-3.1326322e-2,0,0,2.0588233e-2,28.779136,49.451413)" />
    <linearGradient
       id="linearGradient5060">
      <stop
         id="stop5062"
         style="stop-color:#000000;stop-opacity:1"
         offset="0" />
      <stop
         id="stop5064"
         style="stop-color:#000000;stop-opacity:0"
         offset="1" />
    </linearGradient>
    <radialGradient
       cx="605.71429"
       cy="486.64789"
       r="117.14286"
       fx="605.71429"
       fy="486.64789"
       id="radialGradient3240"
       xlink:href="#linearGradient5060"
       gradientUnits="userSpaceOnUse"
       gradientTransform="matrix(3.1326329e-2,0,0,2.0588233e-2,35.220859,49.451413)" />
    <linearGradient
       id="linearGradient3104">
      <stop
         id="stop3106"
         style="stop-color:#aaaaaa;stop-opacity:1"
         offset="0" />
      <stop
         id="stop3108"
         style="stop-color:#c8c8c8;stop-opacity:1"
         offset="1" />
    </linearGradient>
    <linearGradient
       x1="-51.786404"
       y1="50.786446"
       x2="-51.786404"
       y2="2.9062471"
       id="linearGradient3237"
       xlink:href="#linearGradient3104"
       gradientUnits="userSpaceOnUse"
       gradientTransform="matrix(1.0843521,0,0,1.1997374,79.550849,-4.1628008)" />
    <linearGradient
       id="linearGradient3600">
      <stop
         id="stop3602"
         style="stop-color:#f4f4f4;stop-opacity:1"
         offset="0" />
      <stop
         id="stop3604"
         style="stop-color:#dbdbdb;stop-opacity:1"
         offset="1" />
    </linearGradient>
    <linearGradient
       x1="25.132275"
       y1="0.98520643"
       x2="25.132275"
       y2="47.013336"
       id="linearGradient3235"
       xlink:href="#linearGradient3600"
       gradientUnits="userSpaceOnUse"
       gradientTransform="matrix(1.3428562,0,0,1.2819748,-0.2285523,-2.7340662)" />
    <radialGradient
       cx="102"
       cy="112.3047"
       r="139.55859"
       id="XMLID_8_"
       gradientUnits="userSpaceOnUse">
      <stop
         id="stop41"
         style="stop-color:#b7b8b9;stop-opacity:1"
         offset="0" />
      <stop
         id="stop47"
         style="stop-color:#ececec;stop-opacity:1"
         offset="0.18851049" />
      <stop
         id="stop49"
         style="stop-color:#fafafa;stop-opacity:0"
         offset="0.25718147" />
      <stop
         id="stop51"
         style="stop-color:#ffffff;stop-opacity:0"
         offset="0.30111277" />
      <stop
         id="stop53"
         style="stop-color:#fafafa;stop-opacity:0"
         offset="0.53130001" />
      <stop
         id="stop55"
         style="stop-color:#ebecec;stop-opacity:0"
         offset="0.84490001" />
      <stop
         id="stop57"
         style="stop-color:#e1e2e3;stop-opacity:0"
         offset="1" />
    </radialGradient>
    <radialGradient
       cx="102"
       cy="112.3047"
       r="139.55859"
       id="radialGradient3232"
       xlink:href="#XMLID_8_"
       gradientUnits="userSpaceOnUse"
       gradientTransform="matrix(0.4857141,0,0,-0.5239323,0.914304,63.5413)" />
    <linearGradient
       id="linearGradient3211">
      <stop
         id="stop3213"
         style="stop-color:#ffffff;stop-opacity:1"
         offset="0" />
      <stop
         id="stop3215"
         style="stop-color:#ffffff;stop-opacity:0"
         offset="1" />
    </linearGradient>
    <linearGradient
       x1="24"
       y1="1.9999999"
       x2="24"
       y2="46.01725"
       id="linearGradient3229"
       xlink:href="#linearGradient3211"
       gradientUnits="userSpaceOnUse"
       gradientTransform="matrix(1.3636354,0,0,1.3255808,-0.7272518,-1.8139391)" />
    <linearGradient
       id="linearGradient8589">
      <stop
         id="stop8591"
         style="stop-color:#fefefe;stop-opacity:1"
         offset="0" />
      <stop
         id="stop8593"
         style="stop-color:#cbcbcb;stop-opacity:1"
         offset="1" />
    </linearGradient>
    <linearGradient
       x1="32.892288"
       y1="8.0590115"
       x2="36.358372"
       y2="5.4565363"
       id="linearGradient3225"
       xlink:href="#linearGradient8589"
       gradientUnits="userSpaceOnUse"
       gradientTransform="matrix(1.3538978,0,0,1.3812083,-0.611935,-1.6903211)" />
  </defs>
  <g
     id="layer1">
    <rect
       width="44.199997"
       height="5"
       x="9.8999996"
       y="57"
       id="rect2879"
       style="opacity:0.3;fill:url(#linearGradient3246);fill-opacity:1;fill-rule:nonzero;stroke:none;stroke-width:1;stroke-linecap:round;stroke-linejoin:miter;marker:none;marker-start:none;marker-mid:none;marker-end:none;stroke-miterlimit:4;stroke-dasharray:none;stroke-dashoffset:0;stroke-opacity:1;visibility:visible;display:inline;overflow:visible" />
    <path
       d="M 9.9,57.000217 C 9.9,57.000217 9.9,61.999941 9.9,61.999941 C 8.2867719,62.009354 6,60.879757 6,59.499757 C 6,58.119759 7.8002408,57.000218 9.9,57.000217 z"
       id="path2881"
       style="opacity:0.3;fill:url(#radialGradient3243);fill-opacity:1;fill-rule:nonzero;stroke:none;stroke-width:1;stroke-linecap:round;stroke-linejoin:miter;marker:none;marker-start:none;marker-mid:none;marker-end:none;stroke-miterlimit:4;stroke-dasharray:none;stroke-dashoffset:0;stroke-opacity:1;visibility:visible;display:inline;overflow:visible" />
    <path
       d="M 54.099999,57.000217 C 54.099999,57.000217 54.099999,61.999941 54.099999,61.999941 C 55.713227,62.009354 58,60.879757 58,59.499757 C 58,58.119759 56.199759,57.000218 54.099999,57.000217 z"
       id="path2883"
       style="opacity:0.3;fill:url(#radialGradient3240);fill-opacity:1;fill-rule:nonzero;stroke:none;stroke-width:1;stroke-linecap:round;stroke-linejoin:miter;marker:none;marker-start:none;marker-mid:none;marker-end:none;stroke-miterlimit:4;stroke-dasharray:none;stroke-dashoffset:0;stroke-opacity:1;visibility:visible;display:inline;overflow:visible" />
    <path
       d="M 8.4999608,0.49996083 C 19.270065,0.49996083 30.040167,0.49996083 40.810272,0.49996083 C 42.699581,1.1363473 52.849588,8.3864685 55.500038,13.40647 C 55.500038,28.770993 55.500038,44.135516 55.500038,59.500039 C 39.833345,59.500039 24.166654,59.500039 8.4999608,59.500039 C 8.4999608,39.833346 8.4999608,20.166653 8.4999608,0.49996083 z"
       id="path4160"
       style="fill:url(#linearGradient3235);fill-opacity:1;stroke:url(#linearGradient3237);stroke-width:0.9999218;stroke-linecap:butt;stroke-linejoin:round;stroke-miterlimit:4;stroke-dasharray:none;stroke-dashoffset:0;stroke-opacity:1;display:inline" />
    <path
       d="M 9.6571549,58.825911 C 9.3895277,58.825911 9.1714411,58.590666 9.1714411,58.301976 L 9.1714411,1.7173144 C 9.1714411,1.428105 9.3895277,1.1933833 9.6571549,1.1933833 C 19.705871,1.3382029 30.84163,0.97675324 40.878137,1.229442 L 54.68624,13.116478 L 54.828554,58.301976 C 54.828554,58.590666 54.610954,58.825911 54.34284,58.825911 L 9.6571549,58.825911 z"
       id="path4191"
       style="fill:url(#radialGradient3232);fill-opacity:1" />
    <path
       d="M 54.500038,13.404529 C 54.500038,28.248222 54.500038,43.656344 54.500038,58.500037 C 39.500014,58.500037 24.499988,58.500037 9.4999609,58.500037 C 9.4999609,39.500011 9.4999609,20.499986 9.4999609,1.4999607 C 19.811763,1.4999607 30.369495,1.4999607 40.681297,1.4999607"
       id="path2435"
       style="opacity:0.6;fill:none;fill-opacity:1;stroke:url(#linearGradient3229);stroke-width:0.9999218;stroke-linecap:butt;stroke-linejoin:round;stroke-miterlimit:4;stroke-dasharray:none;stroke-dashoffset:0;stroke-opacity:1;display:inline" />
    <g
       transform="translate(-31.058336,0)"
       id="g3423">
      <path
         d="M 66.793324,0.98784908 C 73.358155,0.98784908 70.094117,13.992005 70.094117,13.992005 C 70.094117,13.992005 85.971718,10.369279 85.971718,16.79485 C 85.971718,16.79485 86.007967,13.742108 86.007967,13.742108 C 82.616299,10.350441 75.428771,3.7146517 70.80341,1.1886238 C 70.80341,1.1886238 66.793324,0.98784908 66.793324,0.98784908 L 66.793324,0.98784908 z"
         id="path3232"
         style="opacity:0.05;fill:#000000;fill-opacity:1;fill-rule:evenodd;stroke:none;display:inline" />
      <path
         d="M 68.039349,0.98784908 C 74.177661,0.98784908 71.125689,13.147122 71.125689,13.147122 C 71.125689,13.147122 85.971718,10.304922 85.971718,16.241275 C 86.757926,11.17637 72.877187,-0.58832169 68.039349,0.98784908 L 68.039349,0.98784908 z"
         id="path3230"
         style="opacity:0.1;fill:#000000;fill-opacity:1;fill-rule:evenodd;stroke:none;display:inline" />
      <path
         d="M 72.054106,12.386727 C 72.054106,12.386727 85.971719,9.9649052 85.971719,16.174288 C 85.971719,12.66759 78.135801,2.858913 69.160773,0.98784908 C 73.523911,2.6579922 72.931084,8.2532913 72.054106,12.386727 z"
         id="path3382"
         style="opacity:0.15;fill:#000000;fill-opacity:1;fill-rule:evenodd;stroke:none;display:inline" />
    </g>
    <path
       d="M 38,1 C 42.324139,1 41.169676,11.168911 41.169676,11.168911 C 41.169676,11.168911 54.977544,9.8668482 54.977544,16 C 54.977544,14.505644 55.09413,13.435507 54.796006,12.969196 C 52.654202,9.619084 43.403114,2.1014807 40.062421,1.1161768 C 39.812428,1.0424442 39.258109,1 38,1 z"
       id="path4474"
       style="fill:url(#linearGradient3225);fill-opacity:1;fill-rule:evenodd;stroke:none;stroke-width:1px;stroke-linecap:butt;stroke-linejoin:miter;stroke-opacity:1;display:inline" />
  </g>
</svg>

<?xml version="1.0" encoding="UTF-8" standalone="no"?>
<!-- Created with Inkscape (http://www.inkscape.org/) -->
<svg id="svg3428" xmlns="http://www.w3.org/2000/svg" height="64" width="64" version="1.0" xmlns:xlink="http://www.w3.org/1999/xlink">
 <defs id="defs3430">
  <linearGradient id="linearGradient3246" y2="609.51" gradientUnits="userSpaceOnUse" x2="302.86" gradientTransform="matrix(.091538 0 0 .020588 -1.0846 49.451)" y1="366.65" x1="302.86">
   <stop id="stop5050" style="stop-opacity:0" offset="0"/>
   <stop id="stop5056" offset=".5"/>
   <stop id="stop5052" style="stop-opacity:0" offset="1"/>
  </linearGradient>
  <radialGradient id="radialGradient3243" xlink:href="#linearGradient5060" gradientUnits="userSpaceOnUse" cy="486.65" cx="605.71" gradientTransform="matrix(-.031326 0 0 .020588 28.779 49.451)" r="117.14"/>
  <linearGradient id="linearGradient5060">
   <stop id="stop5062" offset="0"/>
   <stop id="stop5064" style="stop-opacity:0" offset="1"/>
  </linearGradient>
  <radialGradient id="radialGradient3240" xlink:href="#linearGradient5060" gradientUnits="userSpaceOnUse" cy="486.65" cx="605.71" gradientTransform="matrix(.031326 0 0 .020588 35.221 49.451)" r="117.14"/>
  <linearGradient id="linearGradient3237" y2="2.9062" gradientUnits="userSpaceOnUse" x2="-51.786" gradientTransform="matrix(1.0844 0 0 1.1997 79.551 -4.1628)" y1="50.786" x1="-51.786">
   <stop id="stop3106" style="stop-color:#aaa" offset="0"/>
   <stop id="stop3108" style="stop-color:#c8c8c8" offset="1"/>
  </linearGradient>
  <linearGradient id="linearGradient3235" y2="47.013" gradientUnits="userSpaceOnUse" x2="25.132" gradientTransform="matrix(1.3429 0 0 1.282 -.22855 -2.7341)" y1=".98521" x1="25.132">
   <stop id="stop3602" style="stop-color:#f4f4f4" offset="0"/>
   <stop id="stop3604" style="stop-color:#dbdbdb" offset="1"/>
  </linearGradient>
  <radialGradient id="radialGradient3232" gradientUnits="userSpaceOnUse" cy="112.3" cx="102" gradientTransform="matrix(.48571 0 0 -.52393 .91430 63.541)" r="139.56">
   <stop id="stop41" style="stop-color:#b7b8b9" offset="0"/>
   <stop id="stop47" style="stop-color:#ececec" offset=".18851"/>
   <stop id="stop49" style="stop-color:#fafafa;stop-opacity:0" offset=".25718"/>
   <stop id="stop51" style="stop-color:#fff;stop-opacity:0" offset=".30111"/>
   <stop id="stop53" style="stop-color:#fafafa;stop-opacity:0" offset=".53130"/>
   <stop id="stop55" style="stop-color:#ebecec;stop-opacity:0" offset=".84490"/>
   <stop id="stop57" style="stop-color:#e1e2e3;stop-opacity:0" offset="1"/>
  </radialGradient>
  <linearGradient id="linearGradient3229" y2="46.017" gradientUnits="userSpaceOnUse" x2="24" gradientTransform="matrix(1.3636 0 0 1.3256 -.72725 -1.8139)" y1="2" x1="24">
   <stop id="stop3213" style="stop-color:#fff" offset="0"/>
   <stop id="stop3215" style="stop-color:#fff;stop-opacity:0" offset="1"/>
  </linearGradient>
  <linearGradient id="linearGradient3225" y2="5.4565" gradientUnits="userSpaceOnUse" x2="36.358" gradientTransform="matrix(1.3539 0 0 1.3812 -.61194 -1.6903)" y1="8.059" x1="32.892">
   <stop id="stop8591" style="stop-color:#fefefe" offset="0"/>
   <stop id="stop8593" style="stop-color:#cbcbcb" offset="1"/>
  </linearGradient>
 </defs>
 <g id="layer1">
  <rect id="rect2879" style="opacity:.3;fill:url(#linearGradient3246)" height="5" width="44.2" y="57" x="9.9"/>
  <path id="path2881" style="opacity:.3;fill:url(#radialGradient3243)" d="m9.9 57v5c-1.6132 0.009-3.9-1.12-3.9-2.5s1.8002-2.5 3.9-2.5z"/>
  <path id="path2883" style="opacity:.3;fill:url(#radialGradient3240)" d="m54.1 57v5c1.613 0.009 3.9-1.12 3.9-2.5s-1.8-2.5-3.9-2.5z"/>
  <path id="path4160" style="stroke-linejoin:round;stroke:url(#linearGradient3237);stroke-width:.99992;fill:url(#linearGradient3235)" d="m8.5 0.49996h32.31c1.89 0.63634 12.04 7.8865 14.69 12.906v46.094h-47v-59z"/>
  <path id="path4191" style="fill:url(#radialGradient3232)" d="m9.6572 58.826c-0.2677 0-0.4858-0.235-0.4858-0.524v-56.585c0-0.2889 0.2181-0.5236 0.4858-0.5236 10.049 0.1448 21.185-0.21665 31.221 0.036l13.808 11.887 0.143 45.186c0 0.289-0.218 0.524-0.486 0.524h-44.686z"/>
  <path id="path2435" style="opacity:.6;stroke-linejoin:round;stroke:url(#linearGradient3229);stroke-width:.99992;fill:none" d="m54.5 13.405v45.095h-45v-57h31.181"/>
  <g id="g3423" transform="translate(-31.058)">
   <path id="path3232" style="opacity:.05;fill-rule:evenodd" d="m66.793 0.98785c6.565 0 3.301 13.004 3.301 13.004s15.878-3.623 15.878 2.803l0.036-3.053c-3.392-3.392-10.579-10.027-15.205-12.553 0-0.0004-4.01-0.20115-4.01-0.20115z"/>
   <path id="path3230" style="opacity:.1;fill-rule:evenodd" d="m68.039 0.98785c6.139 0 3.087 12.159 3.087 12.159s14.846-2.842 14.846 3.094c0.786-5.065-13.095-16.829-17.933-15.253v-0.00015z"/>
   <path id="path3382" style="opacity:.15;fill-rule:evenodd" d="m72.054 12.387s13.918-2.4221 13.918 3.787c0-3.506-7.836-13.315-16.811-15.186 4.363 1.67 3.77 7.2653 2.893 11.399z"/>
  </g>
  <path id="path4474" style="fill:url(#linearGradient3225);fill-rule:evenodd" d="m38 1c4.324 0 3.17 10.169 3.17 10.169s13.808-1.3022 13.808 4.831c0-1.494 0.116-2.564-0.182-3.031-2.142-3.3499-11.393-10.868-14.734-11.853-0.25-0.0736-0.804-0.116-2.062-0.116z"/>
 </g>
</svg>
